svg/m/BO.svg

<svg width="20" height="15" viewBox="0 0 20 15" fill="none" xmlns="http://www.w3.org/2000/svg">
<g clip-path="url(#clip0_270_60917)">
<rect width="20" height="15" fill="white"/>
<path fill-rule="evenodd" clip-rule="evenodd" d="M0 0V15H20V0H0Z" fill="#FECA00"/>
<mask id="mask0_270_60917" style="mask-type:luminance" maskUnits="userSpaceOnUse" x="0" y="0" width="20" height="15">
<path fill-rule="evenodd" clip-rule="evenodd" d="M0 0V15H20V0H0Z" fill="white"/>
</mask>
<g mask="url(#mask0_270_60917)">
<path fill-rule="evenodd" clip-rule="evenodd" d="M0 0V5H20V0H0Z" fill="#DB501C"/>
<path fill-rule="evenodd" clip-rule="evenodd" d="M0 10V15H20V10H0Z" fill="#5EAA22"/>
<path d="M7.2796 7.03754C7.2796 7.03754 7.04717 9.41823 9.16311 9.41823C11.2791 9.41823 10.7404 9.41823 10.7404 9.41823C10.7404 9.41823 12.9664 9.27301 12.7079 7.03754" stroke="#DB501C" stroke-width="0.9375"/>
<path d="M11.4062 7.375C11.4062 8.15165 10.7767 8.78125 10 8.78125C9.22335 8.78125 8.59375 8.15165 8.59375 7.375C8.59375 6.59835 9.22335 5.96875 10 5.96875C10.7767 5.96875 11.4062 6.59835 11.4062 7.375Z" fill="#FECA00" stroke="#68B9E8" stroke-width="0.9375"/>
<path fill-rule="evenodd" clip-rule="evenodd" d="M10 7.5C10.3452 7.5 10.625 7.22018 10.625 6.875C10.625 6.52982 10.3452 6.25 10 6.25C9.65482 6.25 9.375 6.52982 9.375 6.875C9.375 7.22018 9.65482 7.5 10 7.5Z" fill="#DB501C"/>
<path fill-rule="evenodd" clip-rule="evenodd" d="M10.0625 8.5C10.6493 8.5 11.125 8.27614 11.125 8C11.125 7.72386 10.6493 7.5 10.0625 7.5C9.4757 7.5 9 7.72386 9 8C9 8.27614 9.4757 8.5 10.0625 8.5Z" fill="#5EAA22"/>
<path fill-rule="evenodd" clip-rule="evenodd" d="M10.0625 6.25C10.8909 6.25 11.5625 6.02614 11.5625 5.75C11.5625 5.47386 10.8909 5.25 10.0625 5.25C9.23407 5.25 8.5625 5.47386 8.5625 5.75C8.5625 6.02614 9.23407 6.25 10.0625 6.25Z" fill="#674F28"/>
</g>
</g>
<defs>
<clipPath id="clip0_270_60917">
<rect width="20" height="15" fill="white"/>
</clipPath>
</defs>
</svg>

<svg width="20" height="15" fill="none" xmlns="http://www.w3.org/2000/svg">
  <mask id="a" maskUnits="userSpaceOnUse" x="0" y="0" width="20" height="15">
    <path fill="#fff" d="M0 0h20v15H0z"/>
  </mask>
  <g mask="url(#a)">
    <path fill-rule="evenodd" clip-rule="evenodd" d="M0 0v15h20V0H0z" fill="#FECA00"/>
    <mask id="b" maskUnits="userSpaceOnUse" x="0" y="0" width="20" height="15">
      <path fill-rule="evenodd" clip-rule="evenodd" d="M0 0v15h20V0H0z" fill="#fff"/>
    </mask>
    <g mask="url(#b)">
      <path fill-rule="evenodd" clip-rule="evenodd" d="M0 0v5h20V0H0z" fill="#DB501C"/>
      <path fill-rule="evenodd" clip-rule="evenodd" d="M0 10v5h20v-5H0z" fill="#5EAA22"/>
      <path d="M7.28 7.038s-.233 2.38 1.883 2.38h1.577s2.226-.145 1.968-2.38" stroke="#DB501C" stroke-width=".938"/>
      <path d="M11.406 7.375a1.406 1.406 0 11-2.812 0 1.406 1.406 0 012.812 0z" fill="#FECA00" stroke="#68B9E8" stroke-width=".938"/>
      <path fill-rule="evenodd" clip-rule="evenodd" d="M10 7.5a.625.625 0 100-1.25.625.625 0 000 1.25z" fill="#DB501C"/>
      <path fill-rule="evenodd" clip-rule="evenodd" d="M10.063 8.5c.586 0 1.062-.224 1.062-.5s-.476-.5-1.063-.5C9.476 7.5 9 7.724 9 8s.476.5 1.063.5z" fill="#5EAA22"/>
      <path fill-rule="evenodd" clip-rule="evenodd" d="M10.063 6.25c.828 0 1.5-.224 1.5-.5s-.672-.5-1.5-.5c-.829 0-1.5.224-1.5.5s.671.5 1.5.5z" fill="#674F28"/>
    </g>
  </g>
</svg>
